dist/assets/img/advantages/shield 3b.svg

<svg width="43" height="43" viewBox="0 0 43 43" fill="none" xmlns="http://www.w3.org/2000/svg">
<path d="M21.5 43C31.9196 43 40.3965 34.4854 40.3965 24.0195C40.3965 18.9112 38.3743 13.9768 34.4874 10.294L36.6172 8.16453L38.246 9.79304L40.0274 8.01165L34.9883 2.97259L33.207 4.75397L34.8355 6.38281L32.539 8.67926C30.3656 7.10816 27.8995 6.0285 25.2793 5.49934V2.51953H27.7988V0H15.2012V2.51953H17.7207V5.49934C9.17792 7.22462 2.60352 14.7917 2.60352 24.0195C2.60352 34.4854 11.0804 43 21.5 43ZM20.2402 2.51953H22.7598V5.16537C22.3421 5.13814 21.9222 5.12305 21.5 5.12305C21.0778 5.12305 20.6579 5.13814 20.2402 5.16537V2.51953ZM21.5 7.64258C30.5303 7.64258 37.877 14.9892 37.877 24.0195C37.877 33.0961 30.5303 40.4805 21.5 40.4805C12.4697 40.4805 5.12305 33.0961 5.12305 24.0195C5.12305 14.9892 12.4697 7.64258 21.5 7.64258Z" fill="#051223"/>
<path d="M21.5 37.877C29.1409 37.877 35.3574 31.6605 35.3574 24.0195C35.3574 16.3786 29.1409 10.1621 21.5 10.1621C13.8591 10.1621 7.64258 16.3786 7.64258 24.0195C7.64258 31.6605 13.8591 37.877 21.5 37.877ZM10.2326 22.7598C10.4751 20.5762 11.3399 18.5779 12.6456 16.9468L14.3738 18.6747L16.1552 16.8933L14.4273 15.1651C16.0584 13.8594 18.0566 12.9946 20.2402 12.7522V15.2012H22.7598V12.7522C24.9434 12.9946 26.9416 13.8594 28.5727 15.1651L26.8448 16.8933L28.6262 18.6747L30.3544 16.9468C31.6601 18.5779 32.5249 20.5762 32.7674 22.7598H30.3184V25.2783H32.7674C32.5249 27.4619 31.6601 29.4611 30.3544 31.0923L28.6262 29.3643L26.8448 31.1457L28.5727 32.874C26.9416 34.1797 24.9434 35.0444 22.7598 35.2869V32.8379H20.2402V35.2869C18.0566 35.0444 16.0584 34.1797 14.4273 32.874L16.1552 31.1457L14.3738 29.3643L12.6456 31.0923C11.3399 29.4611 10.4751 27.4629 10.2326 25.2793H12.6816V22.7598H10.2326Z" fill="#051223"/>
<path d="M26.5391 22.7598H22.7598V18.9805H20.2402V25.2793H26.5391V22.7598Z" fill="#051223"/>
</svg>

<svg width="43" height="43" fill="none" xmlns="http://www.w3.org/2000/svg"><path d="M21.5 43c10.42 0 18.897-8.515 18.897-18.98a18.78 18.78 0 00-5.91-13.726l2.13-2.13 1.629 1.629 1.781-1.781-5.039-5.04-1.781 1.782 1.629 1.629-2.297 2.296a18.682 18.682 0 00-7.26-3.18V2.52h2.52V0H15.2v2.52h2.52V5.5C9.178 7.224 2.604 14.791 2.604 24.02 2.604 34.484 11.08 43 21.5 43zM20.24 2.52h2.52v2.645a19.359 19.359 0 00-1.26-.042c-.422 0-.842.015-1.26.042V2.52zm1.26 5.123c9.03 0 16.377 7.346 16.377 16.377 0 9.076-7.347 16.46-16.377 16.46-9.03 0-16.377-7.384-16.377-16.46 0-9.03 7.347-16.377 16.377-16.377z" fill="#051223"/><path d="M21.5 37.877c7.64 0 13.857-6.217 13.857-13.858 0-7.64-6.216-13.857-13.857-13.857-7.64 0-13.857 6.217-13.857 13.857 0 7.642 6.216 13.858 13.857 13.858zM10.233 22.76a11.283 11.283 0 012.413-5.813l1.728 1.728 1.781-1.782-1.728-1.728a11.282 11.282 0 015.813-2.413v2.45h2.52v-2.45a11.282 11.282 0 015.813 2.413l-1.728 1.728 1.781 1.782 1.728-1.728a11.283 11.283 0 012.413 5.813h-2.449v2.518h2.45a11.287 11.287 0 01-2.414 5.814l-1.728-1.728-1.781 1.782 1.728 1.728a11.283 11.283 0 01-5.813 2.413v-2.45h-2.52v2.45a11.283 11.283 0 01-5.813-2.413l1.728-1.728-1.781-1.782-1.728 1.728a11.284 11.284 0 01-2.413-5.813h2.449v-2.52h-2.45z" fill="#051223"/><path d="M26.54 22.76h-3.78v-3.78h-2.52v6.3h6.3v-2.52z" fill="#051223"/></svg>
